packages/kaspersky-hexa-ui-icons/src/iconsSVGs/16x12/FlagWw.svg

<svg width="16" height="12" viewBox="0 0 16 12" fill="none" xmlns="http://www.w3.org/2000/svg">
<g clip-path="url(#clip0_41818_4377)">
<rect width="16" height="12" rx="2" fill="white"/>
<mask id="mask0_41818_4377" style="mask-type:luminance" maskUnits="userSpaceOnUse" x="0" y="0" width="16" height="12">
<rect width="16" height="12" rx="2" fill="white"/>
</mask>
<g mask="url(#mask0_41818_4377)">
<rect width="16" height="12" fill="#19BFBF"/>
<path d="M8 1.60025C10.4299 1.60028 12.4002 3.56978 12.4004 5.99966C12.4004 8.4297 10.4301 10.4 8 10.4001C5.56992 10.4001 3.59961 8.42972 3.59961 5.99966C3.59979 3.56976 5.57003 1.60025 8 1.60025ZM6.80957 6.40005C6.86796 7.74857 7.21885 8.94057 7.76758 9.59146C7.84445 9.59636 7.92189 9.60025 8 9.60025C8.07778 9.60025 8.15489 9.59632 8.23145 9.59146C8.7804 8.94068 9.13203 7.7489 9.19043 6.40005H6.80957ZM9.99121 6.40005C9.94731 7.51695 9.71824 8.55095 9.32812 9.34537C10.54 8.86361 11.4285 7.74399 11.5771 6.40005H9.99121ZM4.42285 6.40005C4.5715 7.74369 5.45946 8.86342 6.6709 9.34537C6.2809 8.551 6.05268 7.51677 6.00879 6.40005H4.42285ZM8 2.40005C7.92191 2.40005 7.84443 2.40297 7.76758 2.40787C7.21863 3.05873 6.86792 4.25134 6.80957 5.60025H9.19043C9.13206 4.25101 8.78062 3.05863 8.23145 2.40787C8.15491 2.40301 8.07776 2.40006 8 2.40005ZM9.32812 2.65396C9.71843 3.44853 9.94733 4.48299 9.99121 5.60025H11.5771C11.4287 4.25598 10.5403 3.13557 9.32812 2.65396ZM6.6709 2.65396C5.45911 3.13575 4.57131 4.25628 4.42285 5.60025H6.00879C6.05266 4.48316 6.28071 3.44848 6.6709 2.65396Z" fill="white"/>
</g>
</g>
<defs>
<clipPath id="clip0_41818_4377">
<rect width="16" height="12" fill="white"/>
</clipPath>
</defs>
</svg>

<svg xmlns="http://www.w3.org/2000/svg" width="16" height="12" fill="none" viewBox="0 0 16 12"><g clip-path="url(#a)"><rect width="16" height="12" fill="#fff" rx="2"/><mask id="b" width="16" height="12" x="0" y="0" maskUnits="userSpaceOnUse" style="mask-type:luminance"><rect width="16" height="12" fill="#fff" rx="2"/></mask><g mask="url(#b)"><path fill="#19bfbf" d="M0 0h16v12H0z"/><path fill="#fff" d="M8 1.6003c2.4299 0 4.4002 1.9695 4.4004 4.3994 0 2.43-1.9703 4.4003-4.4004 4.4004-2.43 0-4.4004-1.9704-4.4004-4.4004C3.5998 3.5697 5.57 1.6003 8 1.6003M6.8096 6.4c.0584 1.3485.4093 2.5405.958 3.1914.0769.0049.1543.0088.2324.0088.0778 0 .1549-.004.2315-.0088.5489-.6508.9005-1.8426.959-3.1914zm3.1816 0c-.0439 1.1168-.273 2.1509-.663 2.9453C10.54 8.8636 11.4284 7.744 11.577 6.4zm-5.5683 0c.1486 1.3436 1.0366 2.4633 2.248 2.9453-.39-.7944-.6182-1.8286-.6621-2.9453zM8 2.4c-.078 0-.1556.0029-.2324.0078-.549.6508-.8997 1.8434-.958 3.1923h2.3808c-.0583-1.3492-.4098-2.5416-.959-3.1923A3.7 3.7 0 0 0 8 2.4m1.3281.2539c.3903.7945.6192 1.829.6631 2.9463h1.5859c-.1484-1.3443-1.0368-2.4647-2.249-2.9463m-2.6572 0c-1.2118.4817-2.0996 1.6023-2.248 2.9463h1.5859c.0439-1.1171.272-2.1518.6621-2.9463"/></g></g><defs><clipPath id="a"><path fill="#fff" d="M0 0h16v12H0z"/></clipPath></defs></svg>
